svgs/2640.svg

<svg xmlns="http://www.w3.org/2000/svg" xmlns:xlink="http://www.w3.org/1999/xlink" preserveAspectRatio="none" viewBox="0 0 72 72"><defs><path id="a" fill="#ECB6CD" d="M70 2q-2-2-4.75-2H6.75Q3.95 0 2 2 0 4 0 6.75v58.5q0 2.8 2 4.8Q3.95 72 6.75 72h58.5Q68 72 70 70.05q2-2 2-4.8V6.75Q72 4 70 2z"/><path id="b" fill="#D8578D" d="M72 6.75q0-2.8-2-4.75L1.95 70.05Q3.9 72 6.75 72h58.5Q68 72 70 70.05q2-2 2-4.8V6.75z"/><path id="c" fill="#E187AC" d="M63 16.25q0-2.8-1.95-4.75-2-2-4.8-2h-40.6q-2.75 0-4.75 2-2 1.95-2 4.75V56.8q0 2.8 2 4.8 2 1.95 4.75 1.95h40.6q2.8 0 4.8-1.95 1.95-2 1.95-4.8V16.25z"/><path id="d" fill="#FFF" d="M71.9 83.7H55.05v40.35H71.9V83.7z"/><path id="e" fill="#FFF" d="M83.65 111.55V94.7H43.3v16.85h40.35z"/><path id="f" fill="#FFF" d="M104.35 45.55q0-16.9-11.95-28.9Q80.4 4.7 63.5 4.7q-16.95 0-28.9 11.95-12 12-12 28.9 0 16.95 12 28.95 11.95 11.95 28.9 11.95 16.9 0 28.9-11.95 11.95-12 11.95-28.95m-40.85-24q9.95 0 16.95 7.05 7.05 7 7.05 16.95t-7.05 17q-7 7.05-16.95 7.05t-17-7.05q-7.05-7-7.05-17 0-9.95 7.05-16.95 7.05-7.05 17-7.05z"/></defs><use xlink:href="#a"/><use xlink:href="#b"/><use xlink:href="#c"/><use transform="matrix(.37418 0 0 .3733 12.25 12)" xlink:href="#d"/><use transform="matrix(.37418 0 0 .3733 12.25 12)" xlink:href="#e"/><use transform="matrix(.37418 0 0 .3733 12.25 12)" xlink:href="#f"/></svg>

<svg xmlns="http://www.w3.org/2000/svg" version="1.1" xmlns:xlink="http://www.w3.org/1999/xlink" preserveAspectRatio="none" x="0px" y="0px" width="72px" height="72px" viewBox="0 0 72 72">
<defs>
<g id="Layer0_0_MEMBER_0_MEMBER_0_FILL">
<path fill="#ECB6CD" stroke="none" d="
M 70 2
Q 68 0 65.25 0
L 6.75 0
Q 3.95 0 2 2 0 4 0 6.75
L 0 65.25
Q 0 68.05 2 70.05 3.95 72 6.75 72
L 65.25 72
Q 68 72 70 70.05 72 68.05 72 65.25
L 72 6.75
Q 72 4 70 2 Z"/>
</g>

<g id="Layer0_0_MEMBER_0_MEMBER_1_MEMBER_0_FILL">
<path fill="#D8578D" stroke="none" d="
M 72 6.75
Q 72 3.95 70 2
L 1.95 70.05
Q 3.9 72 6.75 72
L 65.25 72
Q 68 72 70 70.05 72 68.05 72 65.25
L 72 6.75 Z"/>
</g>

<g id="Layer0_0_MEMBER_0_MEMBER_2_FILL">
<path fill="#E187AC" stroke="none" d="
M 63 16.25
Q 63 13.45 61.05 11.5 59.05 9.5 56.25 9.5
L 15.65 9.5
Q 12.9 9.5 10.9 11.5 8.9 13.45 8.9 16.25
L 8.9 56.8
Q 8.9 59.6 10.9 61.6 12.9 63.55 15.65 63.55
L 56.25 63.55
Q 59.05 63.55 61.05 61.6 63 59.6 63 56.8
L 63 16.25 Z"/>
</g>

<g id="Layer0_1_MEMBER_0_MEMBER_0_FILL">
<path fill="#FFFFFF" stroke="none" d="
M 71.9 83.7
L 55.05 83.7 55.05 124.05 71.9 124.05 71.9 83.7 Z"/>
</g>

<g id="Layer0_1_MEMBER_0_MEMBER_1_FILL">
<path fill="#FFFFFF" stroke="none" d="
M 83.65 111.55
L 83.65 94.7 43.3 94.7 43.3 111.55 83.65 111.55 Z"/>
</g>

<g id="Layer0_1_MEMBER_0_MEMBER_2_FILL">
<path fill="#FFFFFF" stroke="none" d="
M 104.35 45.55
Q 104.35 28.65 92.4 16.65 80.4 4.7 63.5 4.7 46.55 4.7 34.6 16.65 22.6 28.65 22.6 45.55 22.6 62.5 34.6 74.5 46.55 86.45 63.5 86.45 80.4 86.45 92.4 74.5 104.35 62.5 104.35 45.55
M 63.5 21.55
Q 73.45 21.55 80.45 28.6 87.5 35.6 87.5 45.55 87.5 55.5 80.45 62.55 73.45 69.6 63.5 69.6 53.55 69.6 46.5 62.55 39.45 55.55 39.45 45.55 39.45 35.6 46.5 28.6 53.55 21.55 63.5 21.55 Z"/>
</g>
</defs>

<g id="Layer_1">
<g transform="matrix( 1, 0, 0, 1, 0,0) ">
<use xlink:href="#Layer0_0_MEMBER_0_MEMBER_0_FILL"/>
</g>

<g transform="matrix( 1, 0, 0, 1, 0,0) ">
<use xlink:href="#Layer0_0_MEMBER_0_MEMBER_1_MEMBER_0_FILL"/>
</g>

<g transform="matrix( 1, 0, 0, 1, 0,0) ">
<use xlink:href="#Layer0_0_MEMBER_0_MEMBER_2_FILL"/>
</g>

<g transform="matrix( 0.374176025390625, 0, 0, 0.3733062744140625, 12.25,12) ">
<use xlink:href="#Layer0_1_MEMBER_0_MEMBER_0_FILL"/>
</g>

<g transform="matrix( 0.374176025390625, 0, 0, 0.3733062744140625, 12.25,12) ">
<use xlink:href="#Layer0_1_MEMBER_0_MEMBER_1_FILL"/>
</g>

<g transform="matrix( 0.374176025390625, 0, 0, 0.3733062744140625, 12.25,12) ">
<use xlink:href="#Layer0_1_MEMBER_0_MEMBER_2_FILL"/>
</g>
</g>
</svg>
